icons/plexis/48/preferences-management-service.svg

<svg viewBox="0 0 48 48" xmlns="http://www.w3.org/2000/svg" xmlns:xlink="http://www.w3.org/1999/xlink">
  <linearGradient id="a" gradientTransform="matrix(0 -1 1 0 -.0000015 47.999998)" gradientUnits="userSpaceOnUse" x1="1" x2="47">
    <stop offset="0" stop-color="#8f3767"/>
    <stop offset="1" stop-color="#9d3c70"/>
  </linearGradient>
  <path d="m47 24c0 22.703-.297 23-23 23-22.703 0-23-.297-23-23 0-22.703.297-23 23-23 22.703 0 23 .297 23 23z" fill="url(#a)"/>
  <path d="m25 10a15 15 0 0 0-15 15 15 15 0 0 0  15 15 15 15 0 0 0  15-15 15 15 0 0 0-15-15m0 3a12 12 0 0 1 12 12 12 12 0 0 1-12 12 12 12 0 0 1-12-12 12 12 0 0 1  12-12m0 2a10 10 0 0 0-10 10 10 10 0 0 0  10 10 10 10 0 0 0  10-10 10 10 0 0 0-10-10" opacity=".1"/>
  <path d="m24 9a15 15 0 0 0-15 15 15 15 0 0 0  15 15 15 15 0 0 0  15-15 15 15 0 0 0-15-15zm0 3a12 12 0 0 1 12 12 12 12 0 0 1-12 12 12 12 0 0 1-12-12 12 12 0 0 1  12-12zm0 2a10 10 0 0 0-10 10 10 10 0 0 0  10 10 10 10 0 0 0  10-10 10 10 0 0 0-10-10z" fill="#f9f9f9"/>
</svg>

<svg xmlns="http://www.w3.org/2000/svg" viewBox="0 0 48 48">
 <defs>
  <linearGradient id="linearGradient3764" x1="1" x2="47" gradientUnits="userSpaceOnUse" gradientTransform="matrix(0,-1,1,0,-1.5e-6,47.999998)">
   <stop style="stop-color:#8f3767;stop-opacity:1"/>
   <stop offset="1" style="stop-color:#9d3c70;stop-opacity:1"/>
  </linearGradient>
 </defs>
 <g>
  
  
  
 </g>
 <g>
  <path d="m 47,24 C 47,46.703 46.703,47 24,47 1.297,47 1,46.703 1,24 1,1.297 1.297,1 24,1 46.703,1 47,1.297 47,24 z" style="fill:url(#linearGradient3764);fill-opacity:1"/>
 </g>
 <g>
  <g>
   <g transform="translate(1,1)">
    <g style="opacity:0.1">
     <!-- color: #9d3c70 -->
    </g>
   </g>
  </g>
 </g>
 <g>
  <g>
   <!-- color: #9d3c70 -->
  </g>
 </g>
 <g>
  
 </g>
 <path d="M 25 10 A 15 15 0 0 0 10 25 15 15 0 0 0 25 40 15 15 0 0 0 40 25 15 15 0 0 0 25 10 m 0 3 A 12 12 0 0 1 37 25 12 12 0 0 1 25 37 12 12 0 0 1 13 25 12 12 0 0 1 25 13 m 0 2 A 10 10 0 0 0 15 25 10 10 0 0 0 25 35 10 10 0 0 0 35 25 10 10 0 0 0 25 15" style="fill:#000;opacity:0.1;fill-opacity:1;stroke:none"/>
 <path d="M 24 9 A 15 15 0 0 0 9 24 A 15 15 0 0 0 24 39 A 15 15 0 0 0 39 24 A 15 15 0 0 0 24 9 z M 24 12 A 12 12 0 0 1 36 24 A 12 12 0 0 1 24 36 A 12 12 0 0 1 12 24 A 12 12 0 0 1 24 12 z M 24 14 A 10 10 0 0 0 14 24 A 10 10 0 0 0 24 34 A 10 10 0 0 0 34 24 A 10 10 0 0 0 24 14 z" style="fill:#f9f9f9;opacity:1;fill-opacity:1;stroke:none"/>
</svg>
